X: 256
%
U:~=!turn!
T: Jack A' Tar
C:
O:Scotland
B:Keith Norman MacDonald : "The Skye collection of the best reels & strathspeys extant" : 1887
Z:Ralph Palmer
R:Hornpipe
M:C
L:1/8
K:E aeolian
B2 | e2 e2 (ef)ge | {/^c}d2 B2- B2 (dB) | ABde faef | {/^c}d2 A2 A2 z2 | e2 (ef) Tg2 (fe) | {/c}dB{/F}GB {/c}d2 T(BA) | GFGE DEFA | {/F}G2 E2 E2 ||
(GA) | BGEG BGEG | (GA)GF TE2 (FG) | AFDF AFDF | AGFE {FE}D2 (EF) | GFGE Tg2 (fe) | {/^c}dB{/F}GB {/c}d2 TB<A | {/F}GFGE DEFA | {/F}G2 E2 E2 |]


